X:157
T:Miss Johnson's
R:reel
D:Mary Bergin: Feadoga Stain
D:Ashplant: Autographed.
Z:id:hn-reel-157
M:C|
K:G
BcdB G2AG|DGBG dGBG|BcdB GBAG|FGAB cAdc|
BcdB ~G2BG|DGBG BABc|d2BA AGBG|FGAB cedc:|
Bcde dcBc|dBgB aBgd|Bcde dcBc|~A2fa gfed|
Bcde dcBc|dBgB aBgd|~f3e defg|a2ag fdcA|
Bcde dcBc|dBgB bBgd|Bcde dcBc|~A2af gfed|
Bcde dcBc|dBgB aBgd|~f3e defg|a2ag fdcA||

